icons/fridge-line.svg

<svg viewBox="0 0 24 24" fill="currentColor" xmlns="http://www.w3.org/2000/svg"><path d="M18.998 1C19.5503 1 19.998 1.44772 19.998 2V22C19.998 22.5523 19.5503 23 18.998 23H4.99805C4.44576 23 3.99805 22.5523 3.99805 22V2C3.99805 1.44772 4.44576 1 4.99805 1H18.998ZM17.998 12H5.99805V21H17.998V12ZM9.99805 14V18H7.99805V14H9.99805ZM17.998 3H5.99805V10H17.998V3ZM9.99805 5V8H7.99805V5H9.99805Z"/></svg>

<svg xmlns="http://www.w3.org/2000/svg" viewBox="0 0 24 24">
    <g>
        <path fill="none" d="M0 0H24V24H0z"/>
        <path d="M19 1c.552 0 1 .448 1 1v20c0 .552-.448 1-1 1H5c-.552 0-1-.448-1-1V2c0-.552.448-1 1-1h14zm-1 11H6v9h12v-9zm-8 2v4H8v-4h2zm8-11H6v7h12V3zm-8 2v3H8V5h2z"/>
    </g>
</svg>
